symbols/web/present_to_all/materialsymbolsrounded/present_to_all_wght700grad200fill1_40px.svg

<svg xmlns="http://www.w3.org/2000/svg" height="40" width="40"><path d="M20.083 27.208q.75 0 1.25-.52.5-.521.5-1.313v-5.667l1.542 1.584q.458.5 1.208.5t1.292-.542q.5-.5.5-1.25t-.5-1.292l-4.333-4.25q-.292-.291-.688-.479-.396-.187-.854-.187-.458 0-.854.187-.396.188-.646.479l-4.375 4.292q-.542.5-.521 1.229.021.729.563 1.271.541.542 1.27.542.73 0 1.313-.542l1.458-1.542v5.667q0 .792.563 1.313.562.52 1.312.52ZM6.542 34.542q-1.834 0-3.125-1.292-1.292-1.292-1.292-3.125V9.875q0-1.833 1.292-3.146 1.291-1.312 3.125-1.312h26.916q1.875 0 3.167 1.312 1.292 1.313 1.292 3.146v20.25q0 1.833-1.292 3.125t-3.167 1.292Z"/></svg>

<svg xmlns="http://www.w3.org/2000/svg" height="40" width="40"><path d="M20.083 27.208Q20.833 27.208 21.333 26.688Q21.833 26.167 21.833 25.375V19.708L23.375 21.292Q23.833 21.792 24.583 21.792Q25.333 21.792 25.875 21.25Q26.375 20.75 26.375 20Q26.375 19.25 25.875 18.708L21.542 14.458Q21.25 14.167 20.854 13.979Q20.458 13.792 20 13.792Q19.542 13.792 19.146 13.979Q18.75 14.167 18.5 14.458L14.125 18.75Q13.583 19.25 13.604 19.979Q13.625 20.708 14.167 21.25Q14.708 21.792 15.437 21.792Q16.167 21.792 16.75 21.25L18.208 19.708V25.375Q18.208 26.167 18.771 26.688Q19.333 27.208 20.083 27.208ZM6.542 34.542Q4.708 34.542 3.417 33.25Q2.125 31.958 2.125 30.125V9.875Q2.125 8.042 3.417 6.729Q4.708 5.417 6.542 5.417H33.458Q35.333 5.417 36.625 6.729Q37.917 8.042 37.917 9.875V30.125Q37.917 31.958 36.625 33.25Q35.333 34.542 33.458 34.542Z"/></svg>
